tools/download-figma-icons/icons/solid/apartment-building.svg

<svg width="25" height="24" viewBox="0 0 25 24" fill="none" xmlns="http://www.w3.org/2000/svg">
<path fill-rule="evenodd" clip-rule="evenodd" d="M23.2508 8.25C23.5058 8.25 23.7458 8.1225 23.8808 7.905C24.0233 7.6875 24.0383 7.4175 23.9333 7.185L21.1208 1.185C20.9933 0.915 20.7308 0.75 20.4383 0.75H3.56329C3.27154 0.75 3.00829 0.915 2.88079 1.185L0.0682907 7.185C-0.0367093 7.4175 -0.0217093 7.6875 0.120791 7.905C0.255791 8.1225 0.495791 8.25 0.750791 8.25H7.50079C7.62079 8.25 7.73329 8.22 7.83829 8.1675L12.0008 6.09L16.1633 8.1675C16.269 8.22 16.3808 8.25 16.5008 8.25H23.2508ZM17.2509 13.5H18.7509C19.1634 13.5 19.5009 13.1625 19.5009 12.75C19.5009 12.3375 19.1634 12 18.7509 12H17.2509C16.8384 12 16.5009 12.3375 16.5009 12.75C16.5009 13.1625 16.8384 13.5 17.2509 13.5ZM17.2509 17.25H18.7509C19.1634 17.25 19.5009 16.9125 19.5009 16.5C19.5009 16.0875 19.1634 15.75 18.7509 15.75H17.2509C16.8384 15.75 16.5009 16.0875 16.5009 16.5C16.5009 16.9125 16.8384 17.25 17.2509 17.25ZM17.2509 21H18.7509C19.1634 21 19.5009 20.6625 19.5009 20.25C19.5009 19.8375 19.1634 19.5 18.7509 19.5H17.2509C16.8384 19.5 16.5009 19.8375 16.5009 20.25C16.5009 20.6625 16.8384 21 17.2509 21ZM10.5009 12.75C10.5009 13.1625 10.8384 13.5 11.2509 13.5H12.7509C13.1634 13.5 13.5009 13.1625 13.5009 12.75C13.5009 12.3375 13.1634 12 12.7509 12H11.2509C10.8384 12 10.5009 12.3375 10.5009 12.75ZM5.25095 13.5H6.75094C7.16344 13.5 7.50094 13.1625 7.50094 12.75C7.50094 12.3375 7.16344 12 6.75094 12H5.25095C4.83844 12 4.50095 12.3375 4.50095 12.75C4.50095 13.1625 4.83844 13.5 5.25095 13.5ZM5.25095 17.25H6.75094C7.16344 17.25 7.50094 16.9125 7.50094 16.5C7.50094 16.0875 7.16344 15.75 6.75094 15.75H5.25095C4.83844 15.75 4.50095 16.0875 4.50095 16.5C4.50095 16.9125 4.83844 17.25 5.25095 17.25ZM5.25095 21H6.75094C7.16344 21 7.50094 20.6625 7.50094 20.25C7.50094 19.8375 7.16344 19.5 6.75094 19.5H5.25095C4.83844 19.5 4.50095 19.8375 4.50095 20.25C4.50095 20.6625 4.83844 21 5.25095 21ZM16.1634 9.66749C16.2684 9.71999 16.3809 9.74999 16.5009 9.74999H22.5009V22.5C22.5009 22.9125 22.1634 23.25 21.7509 23.25H14.2509V17.625C14.2509 17.5125 14.1984 17.4 14.1084 17.3325L12.2334 15.8325C12.0984 15.72 11.9034 15.72 11.7684 15.8325L9.89345 17.3325C9.80344 17.4 9.75095 17.5125 9.75095 17.625V23.25H2.25094C1.83844 23.25 1.50094 22.9125 1.50094 22.5V9.74999H7.50095C7.62094 9.74999 7.73345 9.71999 7.83844 9.66749L12.0009 7.58999L16.1634 9.66749Z" fill="black"/>
</svg>

<svg width="25" height="24" viewBox="0 0 25 24" fill="none" xmlns="http://www.w3.org/2000/svg"><path fill-rule="evenodd" clip-rule="evenodd" d="M23.25 8.25a.739.739 0 0 0 .63-.345.747.747 0 0 0 .053-.72l-2.812-6a.75.75 0 0 0-.683-.435H3.563a.75.75 0 0 0-.682.435l-2.813 6a.747.747 0 0 0 .053.72.739.739 0 0 0 .63.345H7.5c.12 0 .232-.03.337-.082L12 6.09l4.162 2.078a.75.75 0 0 0 .338.082h6.75Zm-6 5.25h1.5c.413 0 .75-.338.75-.75a.752.752 0 0 0-.75-.75h-1.5a.752.752 0 0 0-.75.75c0 .412.338.75.75.75Zm0 3.75h1.5c.413 0 .75-.337.75-.75a.752.752 0 0 0-.75-.75h-1.5a.752.752 0 0 0-.75.75c0 .413.338.75.75.75Zm0 3.75h1.5c.413 0 .75-.337.75-.75a.752.752 0 0 0-.75-.75h-1.5a.752.752 0 0 0-.75.75c0 .413.338.75.75.75Zm-6.75-8.25c0 .412.338.75.75.75h1.5c.413 0 .75-.338.75-.75a.752.752 0 0 0-.75-.75h-1.5a.752.752 0 0 0-.75.75Zm-5.25.75h1.5c.413 0 .75-.338.75-.75a.752.752 0 0 0-.75-.75h-1.5a.752.752 0 0 0-.75.75c0 .412.338.75.75.75Zm0 3.75h1.5c.413 0 .75-.337.75-.75a.752.752 0 0 0-.75-.75h-1.5a.752.752 0 0 0-.75.75c0 .413.338.75.75.75Zm0 3.75h1.5c.413 0 .75-.337.75-.75a.752.752 0 0 0-.75-.75h-1.5a.752.752 0 0 0-.75.75c0 .413.338.75.75.75ZM16.164 9.667a.748.748 0 0 0 .338.083h6V22.5c0 .413-.338.75-.75.75h-7.5v-5.625a.37.37 0 0 0-.143-.293l-1.875-1.5a.363.363 0 0 0-.465 0l-1.875 1.5a.37.37 0 0 0-.142.293v5.625h-7.5a.752.752 0 0 1-.75-.75V9.75h6a.74.74 0 0 0 .337-.083l4.163-2.077 4.162 2.077Z" fill="currentColor"/></svg>
